X: 371
T: Mazurka No. 1	 Op. 59
C: Fryderyk Chopin
%%abc-version 2.0
%%abcx-abcm2ps-target-version 5.9.1 (29 Sep 2008)
%%abc-creator hum2abc beta
%%abcx-conversion-date 2021/10/03 11:23:53
%%abc-edited-by Tomasz Sierawski
%%abc-edited-by Marta Lawrence
%%abc-edited-by Zofia Trojan
%%abcx-initial-encoding-date 2018-06-18
%%humdrum-veritas 2587798927
%%humdrum-veritas-data 2579010052
%%linebreak <none>
%%barnumbers 0
L: 1/4
M: 3/4
N: Derived from 059-1-BR-001.krn
P: 3 MAZURKAS POUR PIANO
Q: "Moderato."
%%staves {1 2}
V: 1 clef=treble
V: 2 clef=bass
K: C
[V:1] e/B/cA | 
[V:2] z3 | 
[V:1] B/^G/E2 | 
[V:2] zz[DB,E,] | 
[V:1] ^F/^G/AB | 
[V:2] z[D^F,E,][D^G,E,] | 
[V:1] c/=f/e2 | 
[V:2] A,,[CE,]_A,, | 
[V:1] g/d/ec | 
[V:2] G,,[EG,][AEC] | 
[V:1] d/B/G2 | 
[V:2] z[FDG,][FB,G,] | 
[V:1] A/B/cd | 
[V:2] z[FA,G,][FB,G,] | 
[V:1] e/>^f/ {/ef}!trill!f2{/ef} | 
[V:2] C,[E^A,^F,]C, | 
[V:1] ^g/B/g^f/g/ | 
[V:2] B,,[EB,^G,][^DB,A,] | 
[V:1] e/z//B//e2 | 
[V:2] E,[^GEB,^G,][=G^CA,] | 
[V:1] f/A/dB3//c// | 
[V:2] D,[FDA,][D^G,E,] | 
[V:1] {/B} A/z//^G//A2- :|]  
[V:2] z[CE,][CE,] & A,,3 :|]  
[V:1] A^F/^G/A/^f/ | 
[V:2] B,,[^DB,A,][DB,A,] | 
[V:1] e/A/^G2- | 
[V:2] E,,[EB,^G,][EB,G,] | 
[V:1] A/{/_B}_A/F/G/A/f/ | 
[V:2] _B,,[D_B,_A,][DB,A,] | 
[V:1] _e/_A<G^F/ | 
[V:2] _E,,[_E_B,G,][EB,G,] | 
[V:1] G/{/A}G/ E/^F/G/e/ | 
[V:2] A,,[^CA,G,][CA,G,] | 
[V:1] d/G/^F/G/^G/B/ | 
[V:2] A,,[DA,^F,][DB,=F,] | 
[V:1] A/>^D/^F/>E/G3//B,// | 
[V:2] A,,[^CA,G,][CA,G,] | 
[V:1] A,/>E/D/>G/^F3//B// | 
[V:2] A,,,[A,^F,][DA,F,] | 
[V:1] (3A/B/A/ ^G/>=G/A3//e// | 
[V:2] A,,[^CE,][GCA,] | 
[V:1] d/>G/^F/>G/^G3//B// | 
[V:2] D,,[CA,D,][C^F,D,]- | 
[V:1] A/>^E/^F/>G/^G3//B// | 
[V:2] [CF,D,][CA,^D,][C^F,D,]- | 
[V:1] (3A/B/A/ ^F/>G/^G3//B// | 
[V:2] C2x & F,A,z | 
[V:1] A/>G/G/>F/F3//^D// | 
[V:2] {/E,} E/B,/CA, | 
[V:1] ^D/>E/!accent!E2 & x2[=D^G,] | 
[V:2] B,/>^G,/E,2- & x2[B,,E,,] | 
[V:1] ^F/^G/AB & [D^G,]x2 | 
[V:2] [E,B,,E,,]z[D^G,E,] | 
[V:1] c/=f/e/c/e/^f/ | 
[V:2] A,,[CE,]_A,, | 
[V:1] g/d/e/B/c/A/ | 
[V:2] G,,[ECG,][AEC] | 
[V:1] d/B/G2 | 
[V:2] z[FDG,][FB,G,] | 
[V:1] A/B/cd | 
[V:2] z[FA,G,][FB,G,] | 
[V:1] e/>^f/ {/ef}!trill!f2{/ef} | 
[V:2] C,[E^A,^F,]C, | 
[V:1] ^g/B/g^f/g/ | 
[V:2] B,,[EB,^G,][^DB,A,] | 
[V:1] e/z//B//e2 | 
[V:2] E,[^GEB,^G,][=G^CA,] | 
[V:1] f/A/dB3//c// | 
[V:2] D,[FDA,][D^G,E,] | 
[V:1] {/AB} A/^G/A2- & zCC ||  
[V:2] z[E,A,,][E,A,,] ||  
[V:1]  [K:A] [CA]CE3//D// [I:setbarnb 38]| 
[V:2]  [K:A] x2F, & [E,A,,][E,A,,][A,,D,,] | 
[V:1] [CE,][CE,]A,3//B,// | 
[V:2] x2F, & A,,[A,,A,,,][A,,D,,] | 
[V:1] [CE,][CB,^E,]E3//D// | 
[V:2] x2A, & A,,G,,[F,F,,] | 
[V:1] [CG,][CA,C,]A,3//B,// | 
[V:2] x2F, & ^E,,F,,^D,, | 
[V:1] [C/A,/E,/]D/^D/E/c3//B// | 
[V:2] E,,E,[D^G,E,] | 
[V:1] ea3/g/ & B/A/A2 | 
[V:2] Dx2 & [E,A,,][CE,][CA,^E,] | 
[V:1] g2g/f/ & F/A/d/ed/ | 
[V:2] [CA,F,][DA,F,]A,,- | 
[V:1] e/^d/e/^e/f/=e/ & c/=G<F^A/ | 
[V:2] [C2E,2]x & A,,^A,,F,, | 
[V:1] d>ce/d/ & ^A/B/G/=A/F/G/- | 
[V:2] B,,,[DB,][B,G,] | 
[V:1] ^B/c<dc/ & G/^E/=E2 | 
[V:2] x^A,F & [B,C,]F,2- | 
[V:1] ^D/F/G/=A/c/B/ | 
[V:2] F,3 & zB,,[^DA,] | 
[V:1] A/B,/=D/E/F/{/A}G/ | 
[V:2] zE,,[=DE,-] | 
[V:1] Fxc/f/ & F/C/E/d/c/B/ | 
[V:2] E,E,2- & A,,2E/D/ | 
[V:1] e/>A/ {/A}a3/g/- & B/>A/x2 | 
[V:2] CA,,[CA,^E,] & E,2x | 
[V:1] g/A/d/e/g3//f// | 
[V:2] [CA,F,][DA,F,][DB,G,] | 
[V:1] f/e/^d/^c/d/{/f}e/ | 
[V:2] x[K:clef=treble]^^F2 & [CA,]^A,B,/C/- | 
[V:1] ^A/>B/^d/A/c/B/ | 
[V:2] [=ADC][^GDB,][F=A,] | 
[V:1] e/>^A/c/B/^e/A/ | 
[V:2] [EB,G,][K:clef=bass].B,,z | 
[V:1] c/B/c'/z//b//^a/=a/ | 
[V:2] .B,,,.[A^DB,]z | 
[V:1] ^g/f/ (3=f/e/^d/ (3=d/c/=c/ | 
[V:2] .E,[=GEB,]z | 
[V:1] B/>=c/G3/A/ & [=GE]E2 | 
[V:2] E/D/=C/B,/A,/=G,/ | 
[V:1] B/>B/D3/=G/ & DB,2 | 
[V:2] F,/^E,/=G,/F,/D,/B,,/ | 
[V:1] ^E/F/{/F}=g/z//f//^e/=e/ & [=E^A,]x2 | 
[V:2] .F,,[=E^A,F,][EA,F,] | 
[V:1] ^d/=d/ (3^c/=c/B/ (3A/G/F/ | 
[V:2] B,,[=DF,]z | 
[V:1] B/=c<GA/ & [=GE]E2 | 
[V:2] E/D/=C/B,/A,/=G,/ | 
[V:1] B/>B/D3/E/ & [=GD]B,2 | 
[V:2] D,/^C,/E,/D,/B,,/=G,,/ | 
[V:1] [^E/=C/F,/]F/{/F}=e/z//^d//=d/^c/ | 
[V:2] .D,,[=CA,D,][CF,D,] | 
[V:1] =c/B/ (3^A/=A/^G/ (3=G/F/=F/ | 
[V:2] =G,,[B,D,]z | 
[V:1] B/>=c/G3/A/ & [=GE]E2 | 
[V:2] E/D/=C/B,/A,/=G,/ | 
[V:1] B/>B/D3/=G/ & DB,2 | 
[V:2] F,/^E,/=G,/F,/D,/B,,/ | 
[V:1] ^E/F/{/F}=g/z//f//^e/=e/ & [=E^A,]x2 | 
[V:2] .F,,[E^A,F,][EA,F,] | 
[V:1] ^d/=d/ c//=c//B//^A// (5:4:5=A//G//=G//F//=F// | 
[V:2] B,,[=DF,]z | 
[V:1] B/=c<GA/ & [=GE]E2 | 
[V:2] E/D/=C/B,/A,/=G,/ | 
[V:1] B/>B/DG & ^DB,2 | 
[V:2] F,/^E,/^G,/F,/^D,/B,,/ | 
[V:1] [F/E/^A,/]>e/^d3/c/ & x[^AE][AE] | 
[V:2] .F,,[CF,]F, | 
[V:1] [B/^D/]z//[^d//F//][fB][bd] | 
[V:2] G,/F,/ (3E,/^D,/C,/ (3B,,/^A,,/G,,/ | 
[V:1] [F/E/^A,/]>e/^d3/c/ & x[^AE][AE] | 
[V:2] .F,,[CF,]F, | 
[V:1] [B/^D/]z//[^d//F//][fB][bd] | 
[V:2] G,/F,/ (3E,/^D,/C,/ (3B,,/G,,/F,,/ | 
[V:1] [B/^D/]z//[^d//F//][fB][bd] | 
[V:2] .B,,,.[^DF,]z | 
[V:1] [B/^D/][^d/^^F/][^^f/B/][b/d/] {/b} [b'/^d'/] z/ | 
[V:2] .B,,[^DB,^^F,]z | 
[V:1] B/^^F/^^C/^D/^F/^^F/ | 
[V:2] z3 | 
[V:1] B/^^F/B/^d/^f/e/ ||  
[V:2] z3 ||  
[V:1]  [K:B] d/A/BG [I:setbarnb 80]| 
[V:2]  [K:B] z[DB,G,][^^CG,E,] | 
[V:1] A/^^F/D2 | 
[V:2] z[^CA,D,][C^^F,D,] | 
[V:1] ^E/^^F/GA | 
[V:2] z[C^E,D,][C^^F,D,] | 
[V:1] B/e/d2 | 
[V:2] G,,[B,D,]=G,, | 
[V:1] f/c/dB | 
[V:2] F,,[DB,F,][GDB,] | 
[V:1] c/A/F2 & xEx | 
[V:2] z[CF,][EA,F,] | 
[V:1] G/A/Bc | 
[V:2] z[EG,F,][EA,F,] | 
[V:1] d/>^e/ {/e}!trill!e2{/de} | 
[V:2] B,,[D^^G,^E,]B,, | 
[V:1] ^^f/A/f^e/f/ | 
[V:2] A,,[DA,^^F,][^^CA,G,] | 
[V:1] d/z//A//d2 | 
[V:2] D,[^^FDA,^^F,][^F^B,G,] | 
[V:1] e/G/cA3//B// | 
[V:2] C,[EA,G,][C^^F,D,] | 
[V:1] {/GA} G/z//^^F//G2- ||  
[V:2] G,,[B,D,][B,G,] ||  
[V:1]  [K:C] AF/G/_A/f/ [I:setbarnb 92]| 
[V:2]  [K:C] _B,,[D_B,_A,][DB,A,] | 
[V:1] _e/_A/Gc3//_B// | 
[V:2] _E,[_E_B,G,][EB,G,] | 
[V:1] (3_A/_B/A/ F/G/A/f/ | 
[V:2] _B,,[D_B,_A,][DB,A,] | 
[V:1] _e/_A<G^F/ | 
[V:2] _E,,[_E_B,G,][EB,G,] | 
[V:1] G=E/^F/G/e/ | 
[V:2] A,,[^CA,G,][CA,G,] | 
[V:1] d/G/^F/G/^G/B/ | 
[V:2] A,,[DA,^F,][DB,=F,] | 
[V:1] A/>^D/^F/>E/G3//B,// | 
[V:2] A,,[^CG,][CG,] | 
[V:1] A,/>E/D/>G/^F3//B// | 
[V:2] A,,,[A,^F,][DA,F,] | 
[V:1] (3A/B/A/ ^G/>=G/A3//e// | 
[V:2] A,,[^CE,][GCA,] | 
[V:1] d/>G/^F/>G/^G3//B// | 
[V:2] D,,[CA,D,][C^F,D,]- | 
[V:1] A/>^E/^F/>G/^G3//B// | 
[V:2] [CF,D,][CA,^D,][C^F,D,]- | 
[V:1] (3A/B/A/ ^F/>G/^G3//B// | 
[V:2] C2z & F,A,x | 
[V:1] A/>=G/G/>F/F3//^D// | 
[V:2] {/E,} E/>B,/CA, | 
[V:1] ^D/>E/E2 | 
[V:2] B,/^G,/!accent!E,2- & x2[D^G,] | 
[V:1] ^F/^G/AB | 
[V:2] [D^G,E,]x2 & [E,B,,E,,]z[DG,E,] | 
[V:1] c/f/e/c/e/^f/ | 
[V:2] A,,[CE,]_A,, | 
[V:1] g/d/e/B/c/A/ | 
[V:2] G,,[ECG,][AEC] | 
[V:1] d/B/G2 & xFF | 
[V:2] z[DG,][DG,] | 
[V:1] A/B/cd | 
[V:2] z[FA,G,][FB,G,] | 
[V:1] e/>^f/ {/ef}!trill!f2{/ef} | 
[V:2] C,[E^A,^F,]C, | 
[V:1] ^g/B/g^f/g/ | 
[V:2] B,,[EB,^G,][^DB,A,] | 
[V:1] e/z//B//e2 | 
[V:2] E,[^GEB,^G,][=G^CA,] | 
[V:1] f/A/dB3//c// | 
[V:2] D,[FB,A,][D^G,E,] | 
[V:1] {/AB} A/z//^G//A2- | 
[V:2] x[^FC][FC] & ^D,2x | 
[V:1] A3- | 
[V:2] .^D,,[^FC][FC] | 
[V:1] A3 | 
[V:2] .^D,[^FC][FC] | 
[V:1] zA,/C/c3//B// | 
[V:2] .^D,,zz | 
[V:1] ^fx2 & B/>A/[aA]z | 
[V:2] ^D,[^FCA,][FCA,] | 
[V:1] z3 | 
[V:2] ^D,,[=FCA,][FCA,] | 
[V:1] z3 | 
[V:2] ^D,[FCA,][FCA,] | 
[V:1] z/ A,/C/F/c3//B// | 
[V:2] .^D,,zz | 
[V:1] fx2 & B/>A/[c'A]z | 
[V:2] ^D,[FCA,][FCA,] | 
[V:1] z/ z// G/<G/F/<F/^D// | 
[V:2] {/E,} E/>B,/CA, | 
[V:1] ^D/>E/E2- | 
[V:2] B,/^G,/!accent!E,2- & x2[DG,] | 
[V:1] E3 | 
[V:2] E,3 & z[D^G,][DG,] | 
[V:1] ^D/>E/!accent!E2 | 
[V:2] B,/^G,/E,2 & x2[DG,] | 
[V:1] ^D/>E/!accent!E2- | 
[V:2] B,/^G,/E,2 & x2[DG,] | 
[V:1] E3 | 
[V:2] [D^G,][DG,]!accent![DG,] & [B,,E,,][B,,E,,][B,,E,,] | 
[V:1] F/^F/=G/^G/=f/G/ & [D^G,]x2 | 
[V:2] E,,,z[DE,] | 
[V:1] B/A/ {/A}az |]  
[V:2] A,,2z & x[CE,]z |]
